packages/blockchain-info-components/src/Images/img/gold-verified.svg

<svg fill="none" height="50" viewBox="0 0 52 50" width="52" xmlns="http://www.w3.org/2000/svg"><path clip-rule="evenodd" d="m45.9735 18.5133 5.6933 6.4866-5.6933 6.4867.7933 8.5867-8.4233 1.9133-4.41 7.42-7.9333-3.4067-7.9334 3.43-4.41-7.42-8.4233-1.9133.79333-8.61-5.693334-6.4867 5.693334-6.51-.79333-8.58664 8.4233-1.89 4.41-7.419998 7.9334 3.406668 7.9333-3.406668 4.41 7.419998 8.4233 1.91334zm-28.54 4.2056 4.8949 4.8948 12.4379-12.4261 3.5117 3.5117-15.9501 15.9501-8.4249-8.4248z" fill="#f7d56e" fill-rule="evenodd"/></svg>

<svg width="52" height="50" viewBox="0 0 52 50" fill="none" xmlns="http://www.w3.org/2000/svg">
<path fill-rule="evenodd" clip-rule="evenodd" d="M45.9735 18.5133L51.6668 24.9999L45.9735 31.4866L46.7668 40.0733L38.3435 41.9866L33.9335 49.4066L26.0002 45.9999L18.0668 49.4299L13.6568 42.0099L5.2335 40.0966L6.02683 31.4866L0.333496 24.9999L6.02683 18.4899L5.2335 9.90326L13.6568 8.01326L18.0668 0.593262L26.0002 3.99993L33.9335 0.593262L38.3435 8.01326L46.7668 9.9266L45.9735 18.5133ZM17.4335 22.7189L22.3284 27.6137L34.7663 15.1876L38.278 18.6993L22.3279 34.6494L13.903 26.2246L17.4335 22.7189Z" fill="#F7D56E"/>
</svg>
